Sources/FrostedUI/Resources/Icons.xcassets/hourGlass32.imageset/hour-glass-32.svg

<svg width="32" height="32" viewBox="0 0 32 32" fill="none" xmlns="http://www.w3.org/2000/svg" data-fui-icon="true">
  <path
    d="M24 1.25C25.5031 1.25 26.7927 2.48374 26.6797 4.05566C26.4984 6.57685 25.9791 8.41587 25.2734 9.8125C24.5647 11.215 23.6873 12.1328 22.8506 12.833C22.4392 13.1772 22.0327 13.473 21.6826 13.7324C21.3227 13.9991 21.0271 14.2247 20.7832 14.457C20.331 14.8879 20.083 15.3111 20.083 16C20.083 16.6889 20.331 17.1121 20.7832 17.543C21.0271 17.7753 21.3227 18.0009 21.6826 18.2676C22.0327 18.527 22.4392 18.8228 22.8506 19.167C23.6873 19.8672 24.5647 20.785 25.2734 22.1875C25.9791 23.5841 26.4984 25.4231 26.6797 27.9443C26.7927 29.5163 25.5031 30.75 24 30.75H8C6.49693 30.75 5.20733 29.5162 5.32031 27.9443C5.50157 25.4232 6.02087 23.5841 6.72656 22.1875C7.4353 20.785 8.31268 19.8672 9.14941 19.167C9.56081 18.8228 9.96725 18.527 10.3174 18.2676C10.6773 18.0009 10.9729 17.7753 11.2168 17.543C11.669 17.1121 11.917 16.689 11.917 16C11.917 15.311 11.669 14.8879 11.2168 14.457C10.9729 14.2247 10.6773 13.9991 10.3174 13.7324C9.96725 13.473 9.56081 13.1772 9.14941 12.833C8.31268 12.1328 7.4353 11.215 6.72656 9.8125C6.02087 8.41587 5.50157 6.57684 5.32031 4.05566C5.20733 2.48377 6.49693 1.25004 8 1.25H24ZM8 2.75C7.294 2.75004 6.77102 3.31673 6.81641 3.94824C6.98674 6.31726 7.46809 7.95354 8.06543 9.13574C8.65953 10.3115 9.38768 11.0762 10.1123 11.6826C10.4817 11.9917 10.8456 12.2566 11.2109 12.5273C11.5664 12.7907 11.9323 13.0666 12.252 13.3711C12.927 14.0142 13.417 14.8083 13.417 16C13.417 17.1917 12.927 17.9858 12.252 18.6289C11.9323 18.9334 11.5664 19.2093 11.2109 19.4727C10.8456 19.7434 10.4817 20.0083 10.1123 20.3174C9.38768 20.9238 8.65953 21.6885 8.06543 22.8643C7.46809 24.0465 6.98674 25.6827 6.81641 28.0518C6.77102 28.6833 7.294 29.25 8 29.25H24C24.706 29.25 25.229 28.6833 25.1836 28.0518C25.0133 25.6827 24.5319 24.0465 23.9346 22.8643C23.3405 21.6885 22.6123 20.9238 21.8877 20.3174C21.5183 20.0083 21.1544 19.7434 20.7891 19.4727C20.4336 19.2093 20.0677 18.9334 19.748 18.6289C19.0731 17.9858 18.583 17.1917 18.583 16C18.583 14.8083 19.0731 14.0142 19.748 13.3711C20.0677 13.0666 20.4336 12.7907 20.7891 12.5273C21.1544 12.2566 21.5183 11.9917 21.8877 11.6826C22.6123 11.0762 23.3405 10.3115 23.9346 9.13574C24.5319 7.95354 25.0133 6.31728 25.1836 3.94824C25.229 3.31671 24.706 2.75 24 2.75H8ZM21 6C21.552 6.00027 22.0079 6.45689 21.8389 6.98242C21.272 8.74387 19.2842 10.4157 17.0947 11.5088C16.4055 11.8529 15.5945 11.8529 14.9053 11.5088C12.7159 10.4157 10.728 8.74384 10.1611 6.98242C9.99206 6.45676 10.4487 6 11.001 6H21Z"
    fill="currentColor"
  />
</svg>

<svg xmlns="http://www.w3.org/2000/svg" width="32" height="32" fill="none" data-fui-icon="true" viewBox="0 0 32 32"><path fill="currentColor" d="M24 1.25c1.503 0 2.793 1.234 2.68 2.806-.182 2.52-.7 4.36-1.407 5.757-.708 1.402-1.586 2.32-2.422 3.02-.412.344-.818.64-1.168.9-.36.266-.656.492-.9.724-.452.43-.7.854-.7 1.543s.248 1.112.7 1.543c.244.232.54.458.9.725.35.259.756.555 1.168.899.836.7 1.714 1.618 2.422 3.02.706 1.397 1.225 3.236 1.407 5.757.113 1.572-1.177 2.806-2.68 2.806H8c-1.503 0-2.793-1.234-2.68-2.806.182-2.52.7-4.36 1.407-5.756.708-1.403 1.586-2.32 2.422-3.021.412-.344.818-.64 1.168-.9.36-.266.656-.492.9-.724.452-.43.7-.854.7-1.543s-.248-1.112-.7-1.543a10 10 0 0 0-.9-.725c-.35-.259-.756-.555-1.168-.899-.836-.7-1.714-1.618-2.422-3.02C6.02 8.416 5.502 6.576 5.32 4.056 5.207 2.484 6.497 1.25 8 1.25zM8 2.75c-.706 0-1.229.567-1.184 1.198.17 2.37.652 4.006 1.25 5.188.594 1.176 1.322 1.94 2.046 2.547.37.309.734.574 1.099.844a11 11 0 0 1 1.041.844c.675.643 1.165 1.437 1.165 2.629s-.49 1.986-1.165 2.629a11 11 0 0 1-1.041.844c-.365.27-.73.535-1.099.844-.724.607-1.452 1.372-2.047 2.547-.597 1.183-1.078 2.819-1.249 5.188-.045.631.478 1.198 1.184 1.198h16c.706 0 1.229-.567 1.184-1.198-.17-2.37-.652-4.005-1.25-5.188-.594-1.175-1.322-1.94-2.046-2.547-.37-.309-.734-.574-1.099-.844a11 11 0 0 1-1.041-.844c-.675-.643-1.165-1.437-1.165-2.629s.49-1.986 1.165-2.629a11 11 0 0 1 1.041-.844c.365-.27.73-.535 1.099-.844.724-.607 1.452-1.371 2.047-2.547.597-1.182 1.078-2.819 1.249-5.188.045-.631-.478-1.198-1.184-1.198zM21 6c.552 0 1.008.457.839.982-.567 1.762-2.555 3.434-4.744 4.527a2.45 2.45 0 0 1-2.19 0c-2.19-1.093-4.177-2.765-4.744-4.527-.169-.525.288-.982.84-.982z"/></svg>
